svgs/duotone/book-circle-arrow-up.svg

<svg xmlns="http://www.w3.org/2000/svg" viewBox="0 0 640 512"><!-- Font Awesome Pro 6.0.0-alpha2 by @fontawesome - https://fontawesome.com License - https://fontawesome.com/license (Commercial License) --><defs><style>.fa-secondary{opacity:.4}</style></defs><path d="M339.367 448H96C78.328 448 64 433.672 64 416C64 398.326 78.328 384 96 384H320.805C320.328 378.723 320 373.402 320 368C320 287.461 374.164 219.711 448 198.797V24C448 10.744 437.254 0 424 0H96C42.98 0 0 42.98 0 96V416C0 469.02 42.98 512 96 512H395C371.621 495.568 352.477 473.613 339.367 448Z" class="fa-secondary"/><path d="M496 224C416.461 224 352 288.463 352 367.998C352 447.537 416.461 512 496 512S640 447.537 640 367.998C640 288.463 575.539 224 496 224ZM563.312 371.312C557.062 377.562 546.937 377.562 540.688 371.312L512 342.625V432C512 440.836 504.836 448 496 448S480 440.836 480 432V342.625L451.312 371.312C445.062 377.562 434.937 377.562 428.688 371.312S422.438 354.937 428.688 348.688L484.688 292.688C490.938 286.438 501.063 286.438 507.312 292.688L563.312 348.688C566.438 351.812 568 355.906 568 360S566.438 368.188 563.312 371.312Z" class="fa-primary"/></svg>

<svg xmlns="http://www.w3.org/2000/svg" viewBox="0 0 640 512"><!--! Font Awesome Pro 6.3.0 by @fontawesome - https://fontawesome.com License - https://fontawesome.com/license (Commercial License) Copyright 2023 Fonticons, Inc. --><defs><style>.fa-secondary{opacity:.4}</style></defs><path class="fa-primary" d="M496 224C416.5 224 352 288.5 352 367.1C352 447.5 416.5 512 496 512s144-64.46 144-144C640 288.5 575.5 224 496 224zM563.3 371.3c-6.25 6.25-16.38 6.25-22.62 0L512 342.6V432c0 8.836-7.164 15.1-16 15.1S480 440.8 480 432v-89.38l-28.69 28.69c-6.25 6.25-16.38 6.25-22.62 0s-6.25-16.38 0-22.62l56-56c6.25-6.25 16.38-6.25 22.62 0l56 56C566.4 351.8 568 355.9 568 360S566.4 368.2 563.3 371.3z"/><path class="fa-secondary" d="M339.4 448H96c-17.67 0-32-14.33-32-32c0-17.67 14.33-32 32-32h224.8C320.3 378.7 320 373.4 320 368c0-80.54 54.16-148.3 128-169.2V48C448 21.49 426.5 0 400 0H96C42.98 0 0 42.98 0 96v320c0 53.02 42.98 96 96 96h299C371.6 495.6 352.5 473.6 339.4 448z"/></svg>
